ui/StatusQ/src/assets/img/icons/youtube.svg

<svg fill="none" height="22" viewBox="0 0 22 22" width="22" xmlns="http://www.w3.org/2000/svg"><g stroke="#939ba1" stroke-linecap="round" stroke-linejoin="round" stroke-width="1.5"><path d="m13.75 11-4.125-2.75v5.5z"/><path d="m2.0625 11.0002c0 2.5571.26418 4.0575.46501 4.8286.05369.2106.15678.4053.30074.5681.14396.1629.32465.289.52709.3681 2.87692 1.1056 7.64466 1.0752 7.64466 1.0752s4.7677.0304 7.6446-1.0752c.2025-.0791.3832-.2052.5271-.368.144-.1629.2471-.3576.3008-.5682.2008-.7711.465-2.2715.465-4.8286s-.2642-4.05742-.465-4.82852c-.0537-.2106-.1568-.40537-.3008-.56818-.1439-.16282-.3246-.28899-.527-.36805-2.877-1.10557-7.6447-1.07521-7.6447-1.07521s-4.76769-.03036-7.64464 1.07519c-.20244.07907-.38312.20524-.52708.36805-.14397.16281-.24706.35759-.30075.56818-.20083.77111-.46503 2.27144-.46503 4.82854z"/></g></svg>

<svg width="22" height="22" viewBox="0 0 22 22" fill="none" xmlns="http://www.w3.org/2000/svg">
<path d="M13.75 11L9.625 8.25V13.75L13.75 11Z" stroke="#939BA1" stroke-width="1.5" stroke-linecap="round" stroke-linejoin="round"/>
<path d="M2.0625 11.0002C2.0625 13.5573 2.32668 15.0577 2.52751 15.8288C2.5812 16.0394 2.68429 16.2341 2.82825 16.3969C2.97221 16.5598 3.1529 16.6859 3.35534 16.765C6.23226 17.8706 11 17.8402 11 17.8402C11 17.8402 15.7677 17.8706 18.6446 16.765C18.8471 16.6859 19.0278 16.5598 19.1717 16.397C19.3157 16.2341 19.4188 16.0394 19.4725 15.8288C19.6733 15.0577 19.9375 13.5573 19.9375 11.0002C19.9375 8.4431 19.6733 6.94278 19.4725 6.17168C19.4188 5.96108 19.3157 5.76631 19.1717 5.6035C19.0278 5.44068 18.8471 5.31451 18.6447 5.23545C15.7677 4.12988 11 4.16024 11 4.16024C11 4.16024 6.23231 4.12988 3.35536 5.23543C3.15292 5.3145 2.97224 5.44067 2.82828 5.60348C2.68431 5.76629 2.58122 5.96107 2.52753 6.17166C2.3267 6.94277 2.0625 8.4431 2.0625 11.0002Z" stroke="#939BA1" stroke-width="1.5" stroke-linecap="round" stroke-linejoin="round"/>
</svg>
